!!!OTL: Klaglied auf Strassburgs Fall
!!!ARE: Europa, Mitteleuropa, Deutschland
!!!SCT: A0415
!!!YEM: Copyright 1995, estate of Helmut Schaffrath.
**kern
*ICvox
*Ivox
*M2/4
*k[b-]
*d:
{8a
=1
8fn
8b-
8a
16g
16fn
=2
4.e}
{8d
=3
8e
8d
8e
8fn
=4
4g
8g}
{8g
=5
8fn
8e
8fn
8g
=6
4a
8a}
{8g
=7
8fn
8g
8.e
16d
=8
4.d}
{8a
=9
8fn
8b-
8a
16g
16fn
=10
4.e}
{8d
=11
8e
8d
8e
8fn
=12
4g
8g}
{8g
=13
8fn
8e
8fn
8g
=14
4a
8a}
{8g
=15
8fn
8g
8.e
16d
=16
4.d}
{8A
=17
8d
8e
8d
8cn
=18
4.B}
{8B
=19
8e
8fn
8e
8d
=20
4cn
8cn}
{8e
=21
8a
8b-
8a
8g
=22
4fn
8fn}
{8e
=23
8fn
8g
8.e
16d
=24
4d
8r}
==
!!!AGN: Romanze, Ballade, Lied, Kriegslied
!! Cod. germ (1670 - 1700) 4088 fol. 136b.
!!!ONB: ESAC (Essen Associative Code) Database: ALTDEU
!!!AMT: simple duple
!!!AIN: vox
!!!EED: Helmut Schaffrath
!!!EEV: 1.0
*-
